Newaita-dark/actions/16/edit-bomb.svg

<svg height="16" viewBox="0 0 16 16" width="16" xmlns="http://www.w3.org/2000/svg"><g fill="#e0e0e0"><path d="m10.160156 5.835938c-1.035156-1.035157-2.289062-1.453126-2.804687-.933594l-.585938.582031c-1.4375-.257813-2.976562.171875-4.09375 1.289063-1.8125 1.8125-1.8125 4.734374 0 6.546874 1.816407 1.816407 4.734375 1.816407 6.550781 0 1.117188-1.117187 1.546876-2.652343 1.285157-4.09375l.585937-.582031c.515625-.519531.101563-1.769531-.9375-2.808593zm-.933594.9375c.515626.515624.726563 1.144531.46875 1.402343l-.664062.660157c.210938.535156.277344 1.113281.199219 1.675781v.003906c-.003907.019531-.007813.039063-.011719.058594-.003906.023437-.007812.042969-.011719.066406-.003906.019531-.007812.039063-.011719.058594v.015625c-.003906.015625-.007812.03125-.011718.046875 0 .007812-.003906.011719-.003906.019531-.003907.011719-.007813.027344-.011719.042969 0 .003906 0 .011719-.003907.019531-.003906.011719-.007812.027344-.007812.039062-.003906.007813-.003906.015626-.007812.023438-.003907.011719-.007813.023438-.011719.039062 0 .007813-.003907.015626-.003907.023438-.003906.011719-.007812.023438-.011718.035156-.003906.007813-.003906.015625-.007813.023438-.003906.011718-.007812.027344-.011719.039062-.003906.007813-.003906.015625-.007812.019532-.003906.015624-.007812.027343-.015625.042968 0 .003906-.003906.011719-.003906.019532-.007813.015624-.011719.03125-.019531.050781 0 0 0 .003906-.003907.007812-.007812.019531-.015625.039063-.023437.058594-.007813.019531-.015625.039063-.023438.058594 0 .003906-.003906.011719-.003906.015625-.007812.011718-.011719.027344-.019531.042968-.003907.007813-.007813.011719-.007813.019532-.007812.011718-.011718.023437-.019531.039062-.003906.003906-.007813.011719-.007813.019532-.007812.011718-.011718.023437-.019531.035156-.003906.007812-.007812.015625-.011719.023437-.003906.011719-.011718.023438-.015624.035157-.003907.007812-.007813.015624-.011719.023437-.007813.011719-.011719.023437-.019531.03125-.003907.007813-.007813.015625-.011719.023437-.007813.011719-.011719.023438-.019531.035157-.003907.007812-.007813.015625-.011719.019531-.007813.015625-.015625.027344-.019531.039062-.003907.003907-.007813.011719-.011719.019532-.007813.011718-.015625.023437-.023438.035156-.003906.007812-.007812.011719-.011719.019531-.011718.015625-.023437.035157-.035156.054688 0 0-.003906.003906-.003906.007812-.011719.015625-.019531.03125-.03125.042969-.003906.007812-.007812.011719-.011719.019531-.007812.011719-.015625.023438-.027343.035157-.003907.007812-.007813.015624-.011719.019531-.007813.011719-.015625.023437-.023438.035156-.007812.003906-.011719.011719-.019531.019531-.007812.011719-.015625.019532-.023438.03125-.003906.007813-.007812.015625-.015624.019532-.007813.011718-.015626.023437-.023438.03125-.007812.007812-.011719.015624-.019531.023437-.007813.007813-.015625.019531-.023438.027344-.003906.007812-.011719.015625-.015625.023437-.011718.007813-.019531.019532-.027344.027344-.007812.007812-.011718.015625-.015624.019531-.011719.011719-.019532.023438-.03125.03125-.003907.007813-.011719.011719-.015626.019531-.007812.011719-.019531.019532-.027343.03125-.007813.003907-.011719.011719-.019531.019532-.015626.015625-.03125.03125-.046876.046875-.617187.617187-1.414062.941406-2.21875.96875-.882812.03125-1.78125-.292969-2.457031-.96875-.667969-.667969-.992187-1.546875-.972656-2.417969.019531-.820312.34375-1.632812.972656-2.261719.015625-.015625.03125-.03125.046875-.046875.007813-.003906.011719-.011718.019532-.015625.007812-.011719.019531-.019531.027343-.027343.007813-.007813.015625-.011719.019531-.019532.011719-.007812.023438-.019531.03125-.027344.007813-.003906.015626-.011718.019532-.015624.011718-.011719.019531-.019532.03125-.027344.007812-.007813.015625-.011719.023437-.019532.007813-.007812.015625-.015624.027344-.023437.007813-.003906.015625-.011719.019531-.015625.011719-.007812.023438-.019531.03125-.027344.007813-.003906.015625-.007812.023438-.015625.007812-.007812.019531-.015625.027344-.023437.007812-.003906.015624-.011719.023437-.015625.011719-.007813.023437-.015625.03125-.023438.007813-.003906.015625-.011719.023437-.015625.011719-.007812.023438-.015625.035157-.023437.003906-.003907.011719-.007813.015625-.011719.015625-.011719.03125-.023438.046875-.03125.003906-.003906.003906-.003906.007812-.007812.019531-.011719.035157-.023438.054688-.03125.003906-.003907.011719-.007813.015625-.011719.011718-.007813.027344-.015625.039062-.023438.003906-.003906.011719-.007812.019532-.011719.011718-.007812.023437-.015624.035156-.023437.007812 0 .015625-.003906.019531-.007813.011719-.007812.023437-.015624.035156-.019531.007813-.007812.015625-.011719.023438-.015625.011719-.003906.023437-.011718.035156-.015625.007813-.003906.015625-.007812.023437-.011719.011719-.007812.023438-.011718.035157-.019531.003906-.003906.011719-.007812.019531-.011719.011719-.003906.023438-.007812.035156-.015624.007813-.003907.015625-.007813.023438-.011719.011718-.003907.023437-.011719.035156-.015625.007812-.003906.015625-.007813.023438-.007813.011718-.007812.027343-.015625.042968-.019531.003906-.003906.007813-.003906.015625-.007812.015625-.007813.035157-.015626.054688-.023438h.003906c.019531-.007812.039063-.015625.058594-.023438h.007812c.015625-.007812.035157-.015624.050781-.019531.007813-.003906.011719-.003906.019532-.007812.011718-.003907.027344-.007813.039062-.015625.007813 0 .015625-.003906.019532-.003906.015624-.003907.027343-.007813.042968-.015626.007813 0 .011719-.003906.019532-.003906.011718-.003906.027343-.007812.039062-.011718.007812-.003907.015625-.003907.023438-.007813.011718-.003906.023437-.007813.039062-.007813.007812-.003906.011719-.003906.019531-.007812.015625-.003906.027344-.007812.042969-.011719.003906 0 .011719 0 .019531-.003906.015625-.003906.027344-.007813.042969-.007813.003906-.003906.011719-.003906.019531-.003906.015625-.003906.03125-.007812.046875-.011718.003906 0 .007813-.003907.011719-.003907.019531-.003906.042969-.007812.0625-.011719.019531-.003906.042969-.007812.0625-.011718h.003906c.019531-.003906.039063-.003906.058594-.007813h.003906c.558594-.078125 1.136719-.015625 1.671875.195313l.664063-.660156c.257812-.257813.882812-.050782 1.402343.46875zm0 0"/><path d="m11.777344 2.601562c-.332032.019532-.601563.113282-.8125.28125-.425782.339844-.503906.867188-.546875 1.339844-.039063.476563-.046875.953125-.15625 1.273438-.109375.324218-.234375.503906-.71875.574218-.125.015626-.230469.097657-.273438.210938-.046875.117188-.027343.246094.050781.34375.074219.097656.199219.144531.320313.125.691406-.101562 1.109375-.550781 1.273437-1.035156.160157-.484375.152344-1 .1875-1.433594.039063-.429688.121094-.726562.289063-.863281.167969-.132813.554687-.222657 1.417969.015625.121094.035156.246094 0 .335937-.085938.089844-.085937.125-.214844.089844-.332031-.03125-.121094-.125-.214844-.246094-.246094-.476562-.128906-.875-.1875-1.210937-.167969zm0 0"/><path d="m13.351562 1.378906c-.050781 0-.097656.027344-.128906.066406l-.339844.457032-.449218-.351563c-.121094-.097656-.300782.003907-.277344.160157l.082031.5625-.566406.070312c-.15625.015625-.207031.214844-.082031.304688l.457031.34375-.355469.449218c-.09375.121094.007813.296875.160156.277344l.566407-.082031.066406.566406c.019531.152344.214844.207031.308594.082031l.34375-.457031.445312.351563c.125.097656.300781-.003907.277344-.15625l-.082031-.566407.566406-.066406c.15625-.019531.207031-.214844.085938-.308594l-.460938-.34375.355469-.449219c.09375-.121093-.007813-.296874-.160157-.273437l-.566406.082031-.066406-.570312c-.011719-.089844-.089844-.15625-.179688-.148438zm0 0"/></g></svg>

<?xml version="1.0" encoding="UTF-8"?>
<svg xmlns="http://www.w3.org/2000/svg" xmlns:xlink="http://www.w3.org/1999/xlink" width="16px" height="16px" viewBox="0 0 16 16" version="1.1">
<g id="surface1">
<path style=" stroke:none;fill-rule:nonzero;fill:rgb(87.843138%,87.843138%,87.843138%);fill-opacity:1;" d="M 10.160156 5.835938 C 9.125 4.800781 7.871094 4.382812 7.355469 4.902344 L 6.769531 5.484375 C 5.332031 5.226562 3.792969 5.65625 2.675781 6.773438 C 0.863281 8.585938 0.863281 11.507812 2.675781 13.320312 C 4.492188 15.136719 7.410156 15.136719 9.226562 13.320312 C 10.34375 12.203125 10.773438 10.667969 10.511719 9.226562 L 11.097656 8.644531 C 11.613281 8.125 11.199219 6.875 10.160156 5.835938 Z M 9.226562 6.773438 C 9.742188 7.289062 9.953125 7.917969 9.695312 8.175781 L 9.03125 8.835938 C 9.242188 9.371094 9.308594 9.949219 9.230469 10.511719 C 9.230469 10.511719 9.230469 10.511719 9.230469 10.515625 C 9.226562 10.535156 9.222656 10.554688 9.21875 10.574219 C 9.214844 10.597656 9.210938 10.617188 9.207031 10.640625 C 9.203125 10.660156 9.199219 10.679688 9.195312 10.699219 C 9.195312 10.707031 9.195312 10.710938 9.195312 10.714844 C 9.191406 10.730469 9.1875 10.746094 9.183594 10.761719 C 9.183594 10.769531 9.179688 10.773438 9.179688 10.78125 C 9.175781 10.792969 9.171875 10.808594 9.167969 10.824219 C 9.167969 10.828125 9.167969 10.835938 9.164062 10.84375 C 9.160156 10.855469 9.15625 10.871094 9.15625 10.882812 C 9.152344 10.890625 9.152344 10.898438 9.148438 10.90625 C 9.144531 10.917969 9.140625 10.929688 9.136719 10.945312 C 9.136719 10.953125 9.132812 10.960938 9.132812 10.96875 C 9.128906 10.980469 9.125 10.992188 9.121094 11.003906 C 9.117188 11.011719 9.117188 11.019531 9.113281 11.027344 C 9.109375 11.039062 9.105469 11.054688 9.101562 11.066406 C 9.097656 11.074219 9.097656 11.082031 9.09375 11.085938 C 9.089844 11.101562 9.085938 11.113281 9.078125 11.128906 C 9.078125 11.132812 9.074219 11.140625 9.074219 11.148438 C 9.066406 11.164062 9.0625 11.179688 9.054688 11.199219 C 9.054688 11.199219 9.054688 11.203125 9.050781 11.207031 C 9.042969 11.226562 9.035156 11.246094 9.027344 11.265625 C 9.019531 11.285156 9.011719 11.304688 9.003906 11.324219 C 9.003906 11.328125 9 11.335938 9 11.339844 C 8.992188 11.351562 8.988281 11.367188 8.980469 11.382812 C 8.976562 11.390625 8.972656 11.394531 8.972656 11.402344 C 8.964844 11.414062 8.960938 11.425781 8.953125 11.441406 C 8.949219 11.445312 8.945312 11.453125 8.945312 11.460938 C 8.9375 11.472656 8.933594 11.484375 8.925781 11.496094 C 8.921875 11.503906 8.917969 11.511719 8.914062 11.519531 C 8.910156 11.53125 8.902344 11.542969 8.898438 11.554688 C 8.894531 11.5625 8.890625 11.570312 8.886719 11.578125 C 8.878906 11.589844 8.875 11.601562 8.867188 11.609375 C 8.863281 11.617188 8.859375 11.625 8.855469 11.632812 C 8.847656 11.644531 8.84375 11.65625 8.835938 11.667969 C 8.832031 11.675781 8.828125 11.683594 8.824219 11.6875 C 8.816406 11.703125 8.808594 11.714844 8.804688 11.726562 C 8.800781 11.730469 8.796875 11.738281 8.792969 11.746094 C 8.785156 11.757812 8.777344 11.769531 8.769531 11.78125 C 8.765625 11.789062 8.761719 11.792969 8.757812 11.800781 C 8.746094 11.816406 8.734375 11.835938 8.722656 11.855469 C 8.722656 11.855469 8.71875 11.859375 8.71875 11.863281 C 8.707031 11.878906 8.699219 11.894531 8.6875 11.90625 C 8.683594 11.914062 8.679688 11.917969 8.675781 11.925781 C 8.667969 11.9375 8.660156 11.949219 8.648438 11.960938 C 8.644531 11.96875 8.640625 11.976562 8.636719 11.980469 C 8.628906 11.992188 8.621094 12.003906 8.613281 12.015625 C 8.605469 12.019531 8.601562 12.027344 8.59375 12.035156 C 8.585938 12.046875 8.578125 12.054688 8.570312 12.066406 C 8.566406 12.074219 8.5625 12.082031 8.554688 12.085938 C 8.546875 12.097656 8.539062 12.109375 8.53125 12.117188 C 8.523438 12.125 8.519531 12.132812 8.511719 12.140625 C 8.503906 12.148438 8.496094 12.160156 8.488281 12.167969 C 8.484375 12.175781 8.476562 12.183594 8.472656 12.191406 C 8.460938 12.199219 8.453125 12.210938 8.445312 12.21875 C 8.4375 12.226562 8.433594 12.234375 8.429688 12.238281 C 8.417969 12.25 8.410156 12.261719 8.398438 12.269531 C 8.394531 12.277344 8.386719 12.28125 8.382812 12.289062 C 8.375 12.300781 8.363281 12.308594 8.355469 12.320312 C 8.347656 12.324219 8.34375 12.332031 8.335938 12.339844 C 8.320312 12.355469 8.304688 12.371094 8.289062 12.386719 C 7.671875 13.003906 6.875 13.328125 6.070312 13.355469 C 5.1875 13.386719 4.289062 13.0625 3.613281 12.386719 C 2.945312 11.71875 2.621094 10.839844 2.640625 9.96875 C 2.660156 9.148438 2.984375 8.335938 3.613281 7.707031 C 3.628906 7.691406 3.644531 7.675781 3.660156 7.660156 C 3.667969 7.65625 3.671875 7.648438 3.679688 7.644531 C 3.6875 7.632812 3.699219 7.625 3.707031 7.617188 C 3.714844 7.609375 3.722656 7.605469 3.726562 7.597656 C 3.738281 7.589844 3.75 7.578125 3.757812 7.570312 C 3.765625 7.566406 3.773438 7.558594 3.777344 7.554688 C 3.789062 7.542969 3.796875 7.535156 3.808594 7.527344 C 3.816406 7.519531 3.824219 7.515625 3.832031 7.507812 C 3.839844 7.5 3.847656 7.492188 3.859375 7.484375 C 3.867188 7.480469 3.875 7.472656 3.878906 7.46875 C 3.890625 7.460938 3.902344 7.449219 3.910156 7.441406 C 3.917969 7.4375 3.925781 7.433594 3.933594 7.425781 C 3.941406 7.417969 3.953125 7.410156 3.960938 7.402344 C 3.96875 7.398438 3.976562 7.390625 3.984375 7.386719 C 3.996094 7.378906 4.007812 7.371094 4.015625 7.363281 C 4.023438 7.359375 4.03125 7.351562 4.039062 7.347656 C 4.050781 7.339844 4.0625 7.332031 4.074219 7.324219 C 4.078125 7.320312 4.085938 7.316406 4.089844 7.3125 C 4.105469 7.300781 4.121094 7.289062 4.136719 7.28125 C 4.140625 7.277344 4.140625 7.277344 4.144531 7.273438 C 4.164062 7.261719 4.179688 7.25 4.199219 7.242188 C 4.203125 7.238281 4.210938 7.234375 4.214844 7.230469 C 4.226562 7.222656 4.242188 7.214844 4.253906 7.207031 C 4.257812 7.203125 4.265625 7.199219 4.273438 7.195312 C 4.285156 7.1875 4.296875 7.179688 4.308594 7.171875 C 4.316406 7.171875 4.324219 7.167969 4.328125 7.164062 C 4.339844 7.15625 4.351562 7.148438 4.363281 7.144531 C 4.371094 7.136719 4.378906 7.132812 4.386719 7.128906 C 4.398438 7.125 4.410156 7.117188 4.421875 7.113281 C 4.429688 7.109375 4.4375 7.105469 4.445312 7.101562 C 4.457031 7.09375 4.46875 7.089844 4.480469 7.082031 C 4.484375 7.078125 4.492188 7.074219 4.5 7.070312 C 4.511719 7.066406 4.523438 7.0625 4.535156 7.054688 C 4.542969 7.050781 4.550781 7.046875 4.558594 7.042969 C 4.570312 7.039062 4.582031 7.03125 4.59375 7.027344 C 4.601562 7.023438 4.609375 7.019531 4.617188 7.019531 C 4.628906 7.011719 4.644531 7.003906 4.660156 7 C 4.664062 6.996094 4.667969 6.996094 4.675781 6.992188 C 4.691406 6.984375 4.710938 6.976562 4.730469 6.96875 C 4.734375 6.96875 4.734375 6.96875 4.734375 6.96875 C 4.753906 6.960938 4.773438 6.953125 4.792969 6.945312 C 4.796875 6.945312 4.796875 6.945312 4.800781 6.945312 C 4.816406 6.9375 4.835938 6.929688 4.851562 6.925781 C 4.859375 6.921875 4.863281 6.921875 4.871094 6.917969 C 4.882812 6.914062 4.898438 6.910156 4.910156 6.902344 C 4.917969 6.902344 4.925781 6.898438 4.929688 6.898438 C 4.945312 6.894531 4.957031 6.890625 4.972656 6.882812 C 4.980469 6.882812 4.984375 6.878906 4.992188 6.878906 C 5.003906 6.875 5.019531 6.871094 5.03125 6.867188 C 5.039062 6.863281 5.046875 6.863281 5.054688 6.859375 C 5.066406 6.855469 5.078125 6.851562 5.09375 6.851562 C 5.101562 6.847656 5.105469 6.847656 5.113281 6.84375 C 5.128906 6.839844 5.140625 6.835938 5.15625 6.832031 C 5.160156 6.832031 5.167969 6.832031 5.175781 6.828125 C 5.191406 6.824219 5.203125 6.820312 5.21875 6.820312 C 5.222656 6.816406 5.230469 6.816406 5.238281 6.816406 C 5.253906 6.8125 5.269531 6.808594 5.285156 6.804688 C 5.289062 6.804688 5.292969 6.800781 5.296875 6.800781 C 5.316406 6.796875 5.339844 6.792969 5.359375 6.789062 C 5.378906 6.785156 5.402344 6.78125 5.421875 6.777344 C 5.421875 6.777344 5.425781 6.777344 5.425781 6.777344 C 5.445312 6.773438 5.464844 6.773438 5.484375 6.769531 C 5.484375 6.769531 5.484375 6.769531 5.488281 6.769531 C 6.046875 6.691406 6.625 6.753906 7.160156 6.964844 L 7.824219 6.304688 C 8.082031 6.046875 8.707031 6.253906 9.226562 6.773438 Z M 9.226562 6.773438 "/>
<path style=" stroke:none;fill-rule:nonzero;fill:rgb(87.843138%,87.843138%,87.843138%);fill-opacity:1;" d="M 11.777344 2.601562 C 11.445312 2.621094 11.175781 2.714844 10.964844 2.882812 C 10.539062 3.222656 10.460938 3.75 10.417969 4.222656 C 10.378906 4.699219 10.371094 5.175781 10.261719 5.496094 C 10.152344 5.820312 10.027344 6 9.542969 6.070312 C 9.417969 6.085938 9.3125 6.167969 9.269531 6.28125 C 9.222656 6.398438 9.242188 6.527344 9.320312 6.625 C 9.394531 6.722656 9.519531 6.769531 9.640625 6.75 C 10.332031 6.648438 10.75 6.199219 10.914062 5.714844 C 11.074219 5.230469 11.066406 4.714844 11.101562 4.28125 C 11.140625 3.851562 11.222656 3.554688 11.390625 3.417969 C 11.558594 3.285156 11.945312 3.195312 12.808594 3.433594 C 12.929688 3.46875 13.054688 3.433594 13.144531 3.347656 C 13.234375 3.261719 13.269531 3.132812 13.234375 3.015625 C 13.203125 2.894531 13.109375 2.800781 12.988281 2.769531 C 12.511719 2.640625 12.113281 2.582031 11.777344 2.601562 Z M 11.777344 2.601562 "/>
<path style=" stroke:none;fill-rule:nonzero;fill:rgb(87.843138%,87.843138%,87.843138%);fill-opacity:1;" d="M 13.351562 1.378906 C 13.300781 1.378906 13.253906 1.40625 13.222656 1.445312 L 12.882812 1.902344 L 12.433594 1.550781 C 12.3125 1.453125 12.132812 1.554688 12.15625 1.710938 L 12.238281 2.273438 L 11.671875 2.34375 C 11.515625 2.359375 11.464844 2.558594 11.589844 2.648438 L 12.046875 2.992188 L 11.691406 3.441406 C 11.597656 3.5625 11.699219 3.738281 11.851562 3.71875 L 12.417969 3.636719 L 12.484375 4.203125 C 12.503906 4.355469 12.699219 4.410156 12.792969 4.285156 L 13.136719 3.828125 L 13.582031 4.179688 C 13.707031 4.277344 13.882812 4.175781 13.859375 4.023438 L 13.777344 3.457031 L 14.34375 3.390625 C 14.5 3.371094 14.550781 3.175781 14.429688 3.082031 L 13.96875 2.738281 L 14.324219 2.289062 C 14.417969 2.167969 14.316406 1.992188 14.164062 2.015625 L 13.597656 2.097656 L 13.53125 1.527344 C 13.519531 1.4375 13.441406 1.371094 13.351562 1.378906 Z M 13.351562 1.378906 "/>
</g>
</svg>
